icons/lines/code.svg

<svg xmlns="http://www.w3.org/2000/svg" width="24" height="24" viewBox="0 0 24 24" fill="none" stroke="currentColor" stroke-width="2" stroke-linecap="round" stroke-linejoin="round" >
  <path d="M8.99953 13C8.33953 13.33 7.78953 13.82 7.37953 14.43C7.14953 14.78 7.14953 15.22 7.37953 15.57C7.78953 16.18 8.33953 16.67 8.99953 17"/>
  <path d="M15.21 13C15.87 13.33 16.42 13.82 16.83 14.43C17.06 14.78 17.06 15.22 16.83 15.57C16.42 16.18 15.87 16.67 15.21 17"/>
  <path d="M9 22H15C20 22 22 20 22 15V9C22 4 20 2 15 2H9C4 2 2 4 2 9V15C2 20 4 22 9 22Z"/>
  <path d="M2.23047 8.01L21.4505 8"/>
  </svg>

<svg xmlns="http://www.w3.org/2000/svg" width="24" height="24" viewBox="0 0 24 24" fill="none" stroke="currentColor" stroke-width="2" stroke-linecap="round" stroke-linejoin="round">
  <path d="M15 22c5 0 7-2 7-7V9c0-5-2-7-7-7H9C4 2 2 4 2 9v6c0 5 2 7 7 7z" />
  <path d="M15.21 13a4.2 4.2 0 0 1 1.62 1.43 1 1 0 0 1 0 1.14A4.2 4.2 0 0 1 15.21 17" />
  <path d="M2.23 8.01 21.45 8" />
  <path d="M9 13a4.2 4.2 0 0 0-1.62 1.43 1 1 0 0 0 0 1.14A4.2 4.2 0 0 0 9 17" />
</svg>
